docs/img/icons/medal.svg

<svg width="70" height="70" viewBox="0 0 70 70" fill="none" xmlns="http://www.w3.org/2000/svg">
<g clip-path="url(#clip0_45:352)">
<path d="M14.6288 25.9766C14.6288 37.2847 23.8285 46.4844 35.1367 46.4844C46.4448 46.4844 55.6445 37.2847 55.6445 25.9766C55.6445 14.6684 46.4448 5.46875 35.1367 5.46875C23.8285 5.46875 14.6288 14.6684 14.6288 25.9766ZM35.1367 8.20313C44.9372 8.20313 52.9102 16.1761 52.9102 25.9766C52.9102 35.7771 44.9372 43.7501 35.1367 43.7501C25.3362 43.7501 17.3632 35.7771 17.3632 25.9766C17.3632 16.1761 25.3362 8.20313 35.1367 8.20313Z" fill="white"/>
<path d="M22.4752 23.5391L27.7747 28.7606L26.5554 36.0991C26.4705 36.6102 26.6815 37.125 27.1007 37.4294C27.5194 37.7338 28.0743 37.775 28.5341 37.5368L35.1367 34.1081L41.7387 37.5368C42.1948 37.7734 42.7497 37.7365 43.1721 37.4294C43.5914 37.125 43.8023 36.6102 43.7174 36.0991L42.4982 28.7606L47.7976 23.5391C48.1667 23.1759 48.2986 22.6355 48.1384 22.1425C47.9781 21.6501 47.5536 21.2907 47.0414 21.2133L39.6869 20.1062L36.3592 13.4512C36.1279 12.9882 35.6542 12.6956 35.1367 12.6956C34.6187 12.6956 34.1455 12.9882 33.9137 13.4512L30.586 20.1062L23.2315 21.2133C22.7193 21.2902 22.2947 21.6501 22.1345 22.1425C21.9743 22.6355 22.1067 23.1759 22.4752 23.5391V23.5391ZM31.6952 22.7044C32.1353 22.6381 32.5155 22.362 32.7147 21.9641L35.1367 17.1197L37.5586 21.9641C37.7579 22.362 38.1381 22.6381 38.5782 22.7044L43.931 23.5102L40.0735 27.3101C39.7568 27.6225 39.6116 28.0695 39.6842 28.5085L40.5718 33.8496L35.7663 31.3545C35.5693 31.252 35.353 31.2007 35.1367 31.2007C34.9204 31.2007 34.7041 31.252 34.5065 31.3545L29.701 33.8496L30.5886 28.5085C30.6618 28.0695 30.5165 27.6225 30.1993 27.3101L26.3423 23.5102L31.6952 22.7044Z" fill="white"/>
<path d="M36.5039 1.36719C36.5039 2.12235 35.8919 2.73438 35.1367 2.73438C34.3816 2.73438 33.7695 2.12235 33.7695 1.36719C33.7695 0.612031 34.3816 0 35.1367 0C35.8919 0 36.5039 0.612031 36.5039 1.36719Z" fill="white"/>
<path d="M28.6933 0.806179C17.1923 3.7419 9.1601 14.0925 9.1601 25.9769C9.1601 33.3581 12.2635 40.3131 17.7114 45.2387L9.47466 59.755C9.20976 60.2223 9.24287 60.8012 9.55904 61.2349C9.8752 61.669 10.4157 61.8779 10.9417 61.7684L20.2957 59.826L23.5834 69.0903C23.7618 69.5945 24.2184 69.9475 24.7514 69.995C25.2844 70.0425 25.7955 69.7739 26.0598 69.3088L35.1367 53.3511L44.213 69.3088C44.4576 69.7387 44.9126 69.9998 45.4008 69.9998C45.4408 69.9998 45.4814 69.9982 45.5215 69.995C46.0545 69.9475 46.5111 69.5939 46.69 69.0903L49.9771 59.826L59.3312 61.7684C59.8567 61.8773 60.3977 61.6685 60.7138 61.2349C61.0305 60.8012 61.0631 60.2223 60.7982 59.755L52.5614 45.2387C58.0094 40.3131 61.1128 33.3581 61.1128 25.9769C61.1128 14.0925 53.0805 3.7419 41.5801 0.806179C40.8479 0.619259 40.104 1.06092 39.9171 1.79258C39.7301 2.52424 40.1718 3.26872 40.9035 3.45564C51.1926 6.08214 58.3789 15.3432 58.3789 25.9769C58.3789 38.9187 47.8681 49.2191 35.1367 49.2191C22.3962 49.2191 11.8945 38.9102 11.8945 25.9769C11.8945 15.3432 19.0802 6.08214 29.3694 3.45564C30.1011 3.26872 30.5427 2.52424 30.3563 1.79258C30.1694 1.06092 29.4255 0.619259 28.6933 0.806179V0.806179ZM25.161 65.3594L22.4742 57.788C22.2456 57.144 21.577 56.7675 20.9078 56.9063L13.3439 58.477L19.8626 46.9883C23.6635 49.7515 28.164 51.4349 32.844 51.8515L25.161 65.3594ZM49.3651 56.9063C48.6964 56.7675 48.0273 57.144 47.7987 57.788L45.1124 65.3594L37.4289 51.8515C42.1094 51.4349 46.6093 49.7515 50.4108 46.9883L56.9295 58.477L49.3651 56.9063Z" fill="white"/>
</g>
<defs>
<clipPath id="clip0_45:352">
<rect width="70" height="70" fill="white"/>
</clipPath>
</defs>
</svg>

<svg width="70" height="70" fill="none" xmlns="http://www.w3.org/2000/svg"><g clip-path="url(#clip0_45:352)" fill="#fff"><path d="M14.629 25.977c0 11.308 9.2 20.507 20.508 20.507s20.508-9.2 20.508-20.507c0-11.309-9.2-20.508-20.508-20.508-11.309 0-20.508 9.2-20.508 20.508zM35.137 8.203c9.8 0 17.773 7.973 17.773 17.774 0 9.8-7.973 17.773-17.773 17.773s-17.774-7.973-17.774-17.773S25.336 8.203 35.137 8.203z"/><path d="M22.475 23.54l5.3 5.22-1.22 7.34a1.367 1.367 0 001.98 1.437l6.602-3.429 6.602 3.429a1.367 1.367 0 001.978-1.438l-1.219-7.338 5.3-5.222a1.366 1.366 0 00-.757-2.326l-7.354-1.107-3.328-6.655a1.367 1.367 0 00-2.445 0l-3.328 6.655-7.354 1.107a1.367 1.367 0 00-.757 2.326zm9.22-.836c.44-.066.82-.342 1.02-.74l2.422-4.844 2.422 4.844c.199.398.58.674 1.02.74l5.352.806-3.857 3.8a1.37 1.37 0 00-.39 1.199l.888 5.34-4.806-2.494a1.364 1.364 0 00-1.26 0l-4.805 2.495.888-5.341a1.366 1.366 0 00-.39-1.199l-3.857-3.8 5.353-.806zm4.809-21.337a1.367 1.367 0 11-2.734 0 1.367 1.367 0 012.734 0z"/><path d="M28.693.806C17.193 3.742 9.16 14.092 9.16 25.976a25.895 25.895 0 008.551 19.263L9.475 59.755a1.367 1.367 0 001.467 2.013l9.354-1.942 3.287 9.264a1.367 1.367 0 002.477.219l9.077-15.958 9.076 15.958a1.367 1.367 0 002.477-.219l3.287-9.264 9.354 1.942a1.368 1.368 0 001.467-2.013l-8.237-14.516a25.895 25.895 0 008.552-19.262c0-11.885-8.032-22.235-19.533-25.17a1.367 1.367 0 10-.676 2.649c10.289 2.626 17.475 11.887 17.475 22.52 0 12.943-10.51 23.243-23.242 23.243-12.74 0-23.242-10.309-23.242-23.242 0-10.634 7.185-19.895 17.474-22.521a1.368 1.368 0 00-.676-2.65zM25.161 65.36l-2.687-7.571a1.367 1.367 0 00-1.566-.882l-7.564 1.571 6.519-11.489a26.032 26.032 0 0012.981 4.864L25.161 65.36zm24.204-8.453a1.368 1.368 0 00-1.566.882l-2.687 7.571-7.683-13.507c4.68-.417 9.18-2.1 12.982-4.864l6.518 11.489-7.564-1.57z"/></g><defs><clipPath id="clip0_45:352"><path fill="#fff" d="M0 0h70v70H0z"/></clipPath></defs></svg>
